Dominus_Dark_Funeral/scalable/apps/org.kde.plasma.vault.svg

<svg xmlns="http://www.w3.org/2000/svg" xmlns:xlink="http://www.w3.org/1999/xlink" width="48" height="48" viewBox="0 0 12.7 12.7"><defs><linearGradient id="a"><stop offset="0" stop-color="#216778"/><stop offset=".27" stop-color="#164450"/><stop offset=".29" stop-color="#216778"/><stop offset=".49" stop-color="#2c89a0"/><stop offset=".71" stop-color="#216778"/><stop offset=".73" stop-color="#164450"/><stop offset="1" stop-color="#216778"/></linearGradient><linearGradient id="b"><stop offset="0" stop-color="#216778"/><stop offset=".18" stop-color="#164450"/><stop offset=".19" stop-color="#216778"/><stop offset=".49" stop-color="#2c89a0"/><stop offset=".8" stop-color="#216778"/><stop offset=".81" stop-color="#164450"/><stop offset="1" stop-color="#216778"/></linearGradient><linearGradient id="c"><stop offset="0" stop-color="#216778"/><stop offset=".12" stop-color="#164450"/><stop offset=".15" stop-color="#2c89a0"/><stop offset=".49" stop-color="#37abc8"/><stop offset=".85" stop-color="#2c89a0"/><stop offset=".88" stop-color="#164450"/><stop offset="1" stop-color="#216778"/></linearGradient><linearGradient id="d"><stop offset="0" stop-color="#0b2228"/><stop offset="1" stop-color="#0b2228" stop-opacity="0"/></linearGradient><linearGradient gradientTransform="matrix(.26458 0 0 .26458 -2.135 -2.14)" xlink:href="#a" id="e" x1="-.04" y1="59.46" x2="64.18" y2="59.46" gradientUnits="userSpaceOnUse"/><linearGradient gradientTransform="matrix(.26458 0 0 .26458 -2.135 -2.14)" xlink:href="#b" id="f" x1="5.27" y1="51.93" x2="59.12" y2="51.93" gradientUnits="userSpaceOnUse"/><linearGradient gradientTransform="matrix(.26458 0 0 .26458 -2.135 -2.14)" xlink:href="#c" id="g" x1="7.65" y1="24.52" x2="56.44" y2="24.52" gradientUnits="userSpaceOnUse"/><linearGradient gradientTransform="matrix(.26458 0 0 .26458 -2.135 -2.14)" xlink:href="#d" id="h" x1="5.27" y1="55.14" x2="5.27" y2="48.73" gradientUnits="userSpaceOnUse"/><linearGradient gradientTransform="matrix(.26458 0 0 .26458 -2.135 -2.14)" xlink:href="#d" id="i" x1="-.04" y1="63.9" x2="-.04" y2="55.02" gradientUnits="userSpaceOnUse"/><linearGradient gradientTransform="matrix(.26458 0 0 .26458 -2.135 -2.14)" xlink:href="#d" id="j" x1="13.48" y1="63.47" x2="13.48" y2="26.47" gradientUnits="userSpaceOnUse"/></defs><path d="M-2.146 12.417h16.992v2.35H-2.146z" fill="url(#e)" transform="matrix(.71971 0 0 .71971 1.78 1.78)"/><path d="M-.74 10.753h14.25v1.698H-.74z" fill="url(#f)" transform="matrix(.71971 0 0 .71971 1.78 1.78)"/><path d="M6.189-2.066c-2.02.018-4.11.958-6.297 3.085v9.744h12.9V3.207h.006V1.019C10.67-.93 8.478-2.09 6.188-2.066z" fill="url(#g)" transform="matrix(.71971 0 0 .71971 1.78 1.78)"/><path d="M-.74 10.753h14.25v1.698H-.74z" fill="url(#h)" transform="matrix(.71971 0 0 .71971 1.78 1.78)"/><path d="M-2.146 12.417h16.992v2.35H-2.146z" fill="url(#i)" transform="matrix(.71971 0 0 .71971 1.78 1.78)"/><path d="M6.457.32v.05c.003.052-.01.088-.038.113-.056.048-.077.126-.103.352a1.29 1.29 0 0 0 .044.589c.038.076.186.19.22.167.012-.005.044-.005.073.002.051.014.051.016.051.238 0 .217-.028.385-.066.385-.008 0-.016-.013-.016-.03 0-.02-.017-.039-.036-.044-.057-.023-.063-.044-.051-.284l.01-.228-.075-.044-.074-.044v.107a.806.806 0 0 1-.014.148.523.523 0 0 0-.007.133v.198c0 .06.007.109.013.109.006 0 .029-.02.051-.048.035-.04.035-.036-.001.033a.708.708 0 0 0-.063.272 1.63 1.63 0 0 1-.029.21 1.657 1.657 0 0 0 .052.405.874.874 0 0 0 .076.13c.038.055.057.062.103.053a.294.294 0 0 0 .091-.046c.042-.038.038-.038.08.067.023.06.03.139.023.287-.006.185-.015.237-.065.337-.027.054-.057.044-.07-.019-.01-.05-.025-.06-.063-.06-.094 0-.135.156-.172.607v.114a.766.766 0 0 0-.35.272c-.095.149-.118.3-.11.732.003.219.001.445 0 .504a.4.4 0 0 1-.033.156l-.14.002c-.014.004-.022.4-.018.941l.012.96c.003.05 1.595.091 1.641.04.011-.01.017-.042.015-.073a43.088 43.088 0 0 1-.01-1.67.496.496 0 0 0-.014-.18.51.51 0 0 0-.157-.016.533.533 0 0 1-.019-.123 8.4 8.4 0 0 1 0-.505c.006-.43-.019-.583-.112-.731a.751.751 0 0 0-.32-.26 1.185 1.185 0 0 1-.004-.205c0-.152-.004-.259-.015-.259a.201.201 0 0 0-.072.029c-.046.022-.054.042-.056.156 0 .095-.003.152-.01.186h-.08c-.003-.022 0-.04.02-.055.032-.023.048-.06.019-.044-.015.012-.019-.043-.008-.281.002-.06.002-.06.027-.018.021.038.03.042.067.023a.705.705 0 0 0 .205-.236c.046-.1.042-.647 0-.762-.02-.045-.043-.083-.053-.083-.008 0-.02-.017-.03-.038-.01-.029-.008-.03.013-.01.013.013.034.027.042.027.019 0 .023-.56.004-.655-.016-.08-.027-.08-.082 0-.04.057-.044.09-.04.316l.002.253-.073.011c-.137.023-.137.023-.152-.114-.013-.105-.011-.126.02-.15.03-.02.035-.033.016-.055-.025-.029-.019-.183.006-.223.006-.014.03-.017.057-.012.044.012.154-.091.21-.198.032-.06.05-.672.022-.782-.015-.063-.015-.063.014-.014l.028.05.025-.076c.017-.05.029-.21.03-.42V.648L6.881.556C6.836.489 6.818.474 6.803.498 6.79.516 6.788.48 6.796.388l.003-.029C6.685.346 6.571.323 6.457.32zm.316.215c.004 0 .01.055.01.118 0 .064 0 .247.005.4.008.247.004.276-.023.25-.08-.068-.19-.05-.223.039-.017.038-.02.034-.043-.048C6.47 1.188 6.5.69 6.54.651c.016-.017.02-.016.01.01-.017.043-.002.05.099.068.046.007.076.004.076-.012 0-.01-.011-.013-.025-.005-.017.011-.019-.006-.011-.063.015-.093.03-.114.057-.073.015.027.02.025.02-.005 0-.02.003-.036.007-.036zm-.38 2.656c-.009-.006-.026.011-.037.038a2.625 2.625 0 0 0-.042.476c.002.172.046.358.082.358.028 0 .042-.09.053-.379.008-.158.015-.299.02-.312.009-.032-.047-.162-.075-.181zm.033 1.638c.02.091.048.158.076.158.012 0 .017-.02.017-.048 0-.006.016 0 .018-.006l-.012-.007c-.004-.02.004-.035.08-.067.046-.019.067 0 .092-.004V4.85h.01c.1.047.144.097.216.253.057.12.057.133.05.765a3.897 3.897 0 0 1-.014.381 16.51 16.51 0 0 1-.69-.011h-.062c-.015-.033-.019-.13-.023-.406-.007-.634-.005-.647.052-.767.064-.141.108-.194.19-.238z" fill="#1d2a2e"/><path d="M6.183-2.066c-2.021.018-4.111.958-6.297 3.085v9.744h12.899V3.207h.008V1.019C10.663-.93 8.472-2.09 6.183-2.066z" fill="url(#j)" transform="matrix(.71971 0 0 .71971 1.78 1.78)"/></svg>

<?xml version="1.0" encoding="UTF-8" standalone="no"?>
<svg
   xmlns:dc="http://purl.org/dc/elements/1.1/"
   xmlns:cc="http://creativecommons.org/ns#"
   xmlns:rdf="http://www.w3.org/1999/02/22-rdf-syntax-ns#"
   xmlns:svg="http://www.w3.org/2000/svg"
   xmlns="http://www.w3.org/2000/svg"
   xmlns:xlink="http://www.w3.org/1999/xlink"
   xmlns:sodipodi="http://sodipodi.sourceforge.net/DTD/sodipodi-0.dtd"
   xmlns:inkscape="http://www.inkscape.org/namespaces/inkscape"
   width="48"
   height="48"
   viewBox="0 0 12.7 12.7"
   version="1.1"
   id="svg74"
   sodipodi:docname="org.kde.plasma.vault.svg"
   inkscape:version="0.92.4 (5da689c313, 2019-01-14)">
  <metadata
     id="metadata78">
    <rdf:RDF>
      <cc:Work
         rdf:about="">
        <dc:format>image/svg+xml</dc:format>
        <dc:type
           rdf:resource="http://purl.org/dc/dcmitype/StillImage" />
        <dc:title></dc:title>
      </cc:Work>
    </rdf:RDF>
  </metadata>
  <sodipodi:namedview
     pagecolor="#ffffff"
     bordercolor="#666666"
     borderopacity="1"
     objecttolerance="10"
     gridtolerance="10"
     guidetolerance="10"
     inkscape:pageopacity="0"
     inkscape:pageshadow="2"
     inkscape:window-width="1112"
     inkscape:window-height="480"
     id="namedview76"
     showgrid="false"
     inkscape:zoom="4.9166667"
     inkscape:cx="2.1355932"
     inkscape:cy="24"
     inkscape:window-x="0"
     inkscape:window-y="25"
     inkscape:window-maximized="0"
     inkscape:current-layer="svg74" />
  <defs
     id="defs58">
    <linearGradient
       id="a">
      <stop
         offset="0"
         stop-color="#216778"
         id="stop2" />
      <stop
         offset=".27"
         stop-color="#164450"
         id="stop4" />
      <stop
         offset=".29"
         stop-color="#216778"
         id="stop6" />
      <stop
         offset=".49"
         stop-color="#2c89a0"
         id="stop8" />
      <stop
         offset=".71"
         stop-color="#216778"
         id="stop10" />
      <stop
         offset=".73"
         stop-color="#164450"
         id="stop12" />
      <stop
         offset="1"
         stop-color="#216778"
         id="stop14" />
    </linearGradient>
    <linearGradient
       id="b">
      <stop
         offset="0"
         stop-color="#216778"
         id="stop17" />
      <stop
         offset=".18"
         stop-color="#164450"
         id="stop19" />
      <stop
         offset=".19"
         stop-color="#216778"
         id="stop21" />
      <stop
         offset=".49"
         stop-color="#2c89a0"
         id="stop23" />
      <stop
         offset=".8"
         stop-color="#216778"
         id="stop25" />
      <stop
         offset=".81"
         stop-color="#164450"
         id="stop27" />
      <stop
         offset="1"
         stop-color="#216778"
         id="stop29" />
    </linearGradient>
    <linearGradient
       id="c">
      <stop
         offset="0"
         stop-color="#216778"
         id="stop32" />
      <stop
         offset=".12"
         stop-color="#164450"
         id="stop34" />
      <stop
         offset=".15"
         stop-color="#2c89a0"
         id="stop36" />
      <stop
         offset=".49"
         stop-color="#37abc8"
         id="stop38" />
      <stop
         offset=".85"
         stop-color="#2c89a0"
         id="stop40" />
      <stop
         offset=".88"
         stop-color="#164450"
         id="stop42" />
      <stop
         offset="1"
         stop-color="#216778"
         id="stop44" />
    </linearGradient>
    <linearGradient
       id="d">
      <stop
         offset="0"
         stop-color="#0b2228"
         id="stop47" />
      <stop
         offset="1"
         stop-color="#0b2228"
         stop-opacity="0"
         id="stop49" />
    </linearGradient>
    <linearGradient
       gradientTransform="matrix(0.19042087,0,0,0.19042087,0.24341912,0.2398206)"
       xlink:href="#a"
       id="e"
       x1="-.04"
       y1="59.46"
       x2="64.18"
       y2="59.46"
       gradientUnits="userSpaceOnUse" />
    <linearGradient
       gradientTransform="matrix(0.19042087,0,0,0.19042087,0.24341912,0.2398206)"
       xlink:href="#b"
       id="f"
       x1="5.27"
       y1="51.93"
       x2="59.12"
       y2="51.93"
       gradientUnits="userSpaceOnUse" />
    <linearGradient
       gradientTransform="matrix(0.19042087,0,0,0.19042087,0.24341912,0.2398206)"
       xlink:href="#c"
       id="g"
       x1="7.65"
       y1="24.52"
       x2="56.44"
       y2="24.52"
       gradientUnits="userSpaceOnUse" />
    <linearGradient
       gradientTransform="matrix(0.19042087,0,0,0.19042087,0.24341912,0.2398206)"
       xlink:href="#d"
       id="h"
       x1="5.27"
       y1="55.14"
       x2="5.27"
       y2="48.73"
       gradientUnits="userSpaceOnUse" />
    <linearGradient
       gradientTransform="matrix(0.19042087,0,0,0.19042087,0.24341912,0.2398206)"
       xlink:href="#d"
       id="i"
       x1="-.04"
       y1="63.9"
       x2="-.04"
       y2="55.02"
       gradientUnits="userSpaceOnUse" />
    <linearGradient
       gradientTransform="matrix(0.19042087,0,0,0.19042087,0.24341912,0.2398206)"
       xlink:href="#d"
       id="j"
       x1="13.48"
       y1="63.47"
       x2="13.48"
       y2="26.47"
       gradientUnits="userSpaceOnUse" />
  </defs>
  <path
     d="M 0.23550234,10.716639 H 12.464815 v 1.691319 H 0.23550234 Z"
     id="path60"
     style="fill:url(#e);stroke-width:0.71970999"
     inkscape:connector-curvature="0" />
  <path
     d="M 1.2474146,9.5190416 H 11.503282 V 10.741109 H 1.2474146 Z"
     id="path62"
     style="fill:url(#f);stroke-width:0.71970999"
     inkscape:connector-curvature="0" />
  <path
     d="M 6.2342852,0.29307914 C 4.780471,0.30603392 3.2762771,0.98256132 1.7022714,2.5133845 V 9.5262387 H 10.986531 V 4.08811 h 0.0043 V 2.5133845 C 9.4593057,1.1106697 7.8817014,0.2758061 6.2335655,0.29307914 Z"
     id="path64"
     style="fill:url(#g);stroke-width:0.71970999"
     inkscape:connector-curvature="0" />
  <path
     d="M 1.2474146,9.5190416 H 11.503282 V 10.741109 H 1.2474146 Z"
     id="path66"
     style="fill:url(#h);stroke-width:0.71970999"
     inkscape:connector-curvature="0" />
  <path
     d="M 0.23550234,10.716639 H 12.464815 v 1.691319 H 0.23550234 Z"
     id="path68"
     style="fill:url(#i);stroke-width:0.71970999"
     inkscape:connector-curvature="0" />
  <path
     d="M 6.457,0.32 V 0.37 C 6.46,0.422 6.447,0.458 6.419,0.483 6.363,0.531 6.342,0.609 6.316,0.835 A 1.29,1.29 0 0 0 6.36,1.424 C 6.398,1.5 6.546,1.614 6.58,1.591 6.592,1.586 6.624,1.586 6.653,1.593 6.704,1.607 6.704,1.609 6.704,1.831 6.704,2.048 6.676,2.216 6.638,2.216 6.63,2.216 6.622,2.203 6.622,2.186 6.622,2.166 6.605,2.147 6.586,2.142 6.529,2.119 6.523,2.098 6.535,1.858 L 6.545,1.63 6.47,1.586 6.396,1.542 V 1.649 A 0.806,0.806 0 0 1 6.382,1.797 0.523,0.523 0 0 0 6.375,1.93 v 0.198 c 0,0.06 0.007,0.109 0.013,0.109 0.006,0 0.029,-0.02 0.051,-0.048 C 6.474,2.149 6.474,2.153 6.438,2.222 A 0.708,0.708 0 0 0 6.375,2.494 1.63,1.63 0 0 1 6.346,2.704 1.657,1.657 0 0 0 6.398,3.109 0.874,0.874 0 0 0 6.474,3.239 C 6.512,3.294 6.531,3.301 6.577,3.292 A 0.294,0.294 0 0 0 6.668,3.246 C 6.71,3.208 6.706,3.208 6.748,3.313 6.771,3.373 6.778,3.452 6.771,3.6 6.765,3.785 6.756,3.837 6.706,3.937 6.679,3.991 6.649,3.981 6.636,3.918 6.626,3.868 6.611,3.858 6.573,3.858 6.479,3.858 6.438,4.014 6.401,4.465 V 4.579 A 0.766,0.766 0 0 0 6.051,4.851 C 5.956,5 5.933,5.151 5.941,5.583 c 0.003,0.219 0.001,0.445 0,0.504 A 0.4,0.4 0 0 1 5.908,6.243 L 5.768,6.245 C 5.754,6.249 5.746,6.645 5.75,7.186 l 0.012,0.96 C 5.765,8.196 7.357,8.237 7.403,8.186 7.414,8.176 7.42,8.144 7.418,8.113 A 43.088,43.088 0 0 1 7.408,6.443 0.496,0.496 0 0 0 7.394,6.263 0.51,0.51 0 0 0 7.237,6.247 0.533,0.533 0 0 1 7.218,6.124 a 8.4,8.4 0 0 1 0,-0.505 C 7.224,5.189 7.199,5.036 7.106,4.888 A 0.751,0.751 0 0 0 6.786,4.628 1.185,1.185 0 0 1 6.782,4.423 C 6.782,4.271 6.778,4.164 6.767,4.164 A 0.201,0.201 0 0 0 6.695,4.193 C 6.649,4.215 6.641,4.235 6.639,4.349 c 0,0.095 -0.003,0.152 -0.01,0.186 H 6.549 C 6.546,4.513 6.549,4.495 6.569,4.48 6.601,4.457 6.617,4.42 6.588,4.436 6.573,4.448 6.569,4.393 6.58,4.155 6.582,4.095 6.582,4.095 6.607,4.137 6.628,4.175 6.637,4.179 6.674,4.16 A 0.705,0.705 0 0 0 6.879,3.924 c 0.046,-0.1 0.042,-0.647 0,-0.762 C 6.859,3.117 6.836,3.079 6.826,3.079 6.818,3.079 6.806,3.062 6.796,3.041 6.786,3.012 6.788,3.011 6.809,3.031 6.822,3.044 6.843,3.058 6.851,3.058 6.87,3.058 6.874,2.498 6.855,2.403 6.839,2.323 6.828,2.323 6.773,2.403 6.733,2.46 6.729,2.493 6.733,2.719 L 6.735,2.972 6.662,2.983 C 6.525,3.006 6.525,3.006 6.51,2.869 6.497,2.764 6.499,2.743 6.53,2.719 6.56,2.699 6.565,2.686 6.546,2.664 6.521,2.635 6.527,2.481 6.552,2.441 6.558,2.427 6.582,2.424 6.609,2.429 6.653,2.441 6.763,2.338 6.819,2.231 6.851,2.171 6.869,1.559 6.841,1.449 6.826,1.386 6.826,1.386 6.855,1.435 l 0.028,0.05 0.025,-0.076 c 0.017,-0.05 0.029,-0.21 0.03,-0.42 V 0.648 L 6.881,0.556 C 6.836,0.489 6.818,0.474 6.803,0.498 6.79,0.516 6.788,0.48 6.796,0.388 L 6.799,0.359 C 6.685,0.346 6.571,0.323 6.457,0.32 Z m 0.316,0.215 c 0.004,0 0.01,0.055 0.01,0.118 0,0.064 0,0.247 0.005,0.4 C 6.796,1.3 6.792,1.329 6.765,1.303 6.685,1.235 6.575,1.253 6.542,1.342 6.525,1.38 6.522,1.376 6.499,1.294 6.47,1.188 6.5,0.69 6.54,0.651 6.556,0.634 6.56,0.635 6.55,0.661 6.533,0.704 6.548,0.711 6.649,0.729 6.695,0.736 6.725,0.733 6.725,0.717 6.725,0.707 6.714,0.704 6.7,0.712 6.683,0.723 6.681,0.706 6.689,0.649 6.704,0.556 6.719,0.535 6.746,0.576 c 0.015,0.027 0.02,0.025 0.02,-0.005 0,-0.02 0.003,-0.036 0.007,-0.036 z M 6.393,3.191 C 6.384,3.185 6.367,3.202 6.356,3.229 A 2.625,2.625 0 0 0 6.314,3.705 C 6.316,3.877 6.36,4.063 6.396,4.063 6.424,4.063 6.438,3.973 6.449,3.684 6.457,3.526 6.464,3.385 6.469,3.372 6.478,3.34 6.422,3.21 6.394,3.191 Z m 0.033,1.638 c 0.02,0.091 0.048,0.158 0.076,0.158 0.012,0 0.017,-0.02 0.017,-0.048 0,-0.006 0.016,0 0.018,-0.006 L 6.525,4.926 C 6.521,4.906 6.529,4.891 6.605,4.859 6.651,4.84 6.672,4.859 6.697,4.855 V 4.85 h 0.01 c 0.1,0.047 0.144,0.097 0.216,0.253 0.057,0.12 0.057,0.133 0.05,0.765 A 3.897,3.897 0 0 1 6.959,6.249 16.51,16.51 0 0 1 6.269,6.238 H 6.207 C 6.192,6.205 6.188,6.108 6.184,5.832 6.177,5.198 6.179,5.185 6.236,5.065 6.3,4.924 6.344,4.871 6.426,4.827 Z"
     id="path70"
     inkscape:connector-curvature="0"
     style="fill:#1d2a2e" />
  <path
     d="M 6.229967,0.29307914 C 4.7754331,0.30603392 3.2712392,0.98256132 1.6979531,2.5133845 V 9.5262387 H 10.981493 V 4.08811 h 0.0058 V 2.5133845 C 9.4542678,1.1106697 7.8773832,0.2758061 6.229967,0.29307914 Z"
     id="path72"
     style="fill:url(#j);stroke-width:0.71970999"
     inkscape:connector-curvature="0" />
</svg>
